wp-content/themes/FoundationPress/dist/assets/images/benefits/icon-glove.svg

<?xml version="1.0" encoding="UTF-8"?>
<svg width="100px" height="100px" viewBox="0 0 100 100" version="1.1" xmlns="http://www.w3.org/2000/svg" xmlns:xlink="http://www.w3.org/1999/xlink">
    <!-- Generator: Sketch 48.2 (47327) - http://www.bohemiancoding.com/sketch -->
    <title>Group 22</title>
    <desc>Created with Sketch.</desc>
    <defs></defs>
    <g id="Home-Revised-Final" stroke="none" stroke-width="1" fill="none" fill-rule="evenodd" transform="translate(-100.000000, -2737.000000)">
        <g id="Group-22" transform="translate(100.000000, 2737.000000)">
            <g id="Group-18-Copy" fill="#B0DF2F">
                <circle id="Oval-4" cx="50" cy="50" r="50"></circle>
            </g>
            <path d="M60.5496014,36.6962765 C68.8534101,41.5802304 59.1944198,48.303807 59.1944198,49.1275672 C59.1944198,50.1662214 62.1372896,54.6789948 60.5496014,56.2320922 C54.9262622,61.7444482 58.440434,66 50.585031,66 C49.5287865,66 45.6027458,63.779429 45.6027458,62.7440307 C45.6027458,57.4368008 52.2922941,46.4641843 40.6204606,46.4641843 C37.4517272,46.4641843 37,42.46911 37,42.46911 C37,33.2937886 47.5690877,31.9588412 47.5690877,35.2148105 C49.6848981,37.2888629 53.9065545,31.8123226 53.9065545,31.8123226 L51.4519486,27 C57.4240478,27.2897813 62.9311337,29.7740858 67,33.9287026 C64.4922498,34.736183 59.8852967,36.3023042 60.5496014,36.6962765 M50,24 C35.6415,24 24,35.6415 24,50 C24,64.3585 35.6415,76 50,76 C64.3585,76 76,64.3585 76,50 C76,35.6415 64.3585,24 50,24" id="Fill-5168" fill="#FFFFFF"></path>
        </g>
    </g>
</svg>

<svg width="100" height="100" viewBox="0 0 100 100" xmlns="http://www.w3.org/2000/svg"><title>Group 22</title><g fill="none" fill-rule="evenodd"><circle cx="50" cy="50" r="50" fill="#B0DF2F"/><path d="M60.55 36.696c8.303 4.884-1.356 11.608-1.356 12.432 0 1.038 2.943 5.551 1.356 7.104C54.926 61.744 58.44 66 50.585 66c-1.056 0-4.982-2.22-4.982-3.256 0-5.307 6.69-16.28-4.983-16.28-3.168 0-3.62-3.995-3.62-3.995 0-9.175 10.57-10.51 10.57-7.254 2.115 2.074 6.337-3.403 6.337-3.403L51.452 27c5.972.29 11.48 2.774 15.548 6.929-2.508.807-7.115 2.373-6.45 2.767M50 24c-14.358 0-26 11.642-26 26 0 14.359 11.642 26 26 26 14.359 0 26-11.641 26-26 0-14.358-11.641-26-26-26" fill="#FFF"/></g></svg>
